X:1
T:A Portugueza
T:A Portuguesa
T:Solo og kor
T:A. Keil
T:H. Lopes de Mendonça
C:A. Keil
Z:H. Lopes de Mendonça
%%score [ 1 2 3 ] { ( 4 6 ) | 5 }
L:1/8
Q:1/4=80
M:4/4
K:Eb
V:1 treble nm="Vokal"
V:2 treble nm="Vokal"
V:3 treble nm="Vokal"
V:4 treble nm="Piano"
V:6 treble 
V:5 bass 
V:1
 z8 | z8 | z8 | z4 z3/2 B/ G3/2 E/ | c4 B2- B3/2 c/ | (B2 A2) G3/2 E/ D3/2 E/ | G4 (=A>B) c3/2 d/ | %7
w: |||He- róis do|mar, no- * bre|po- * vo, Na- çao va-|len- te, _ i- mor-|
 B4 z2 B d | f4 d2 B A | A4 G2 B3/2 G/ | (E3 B,) (EF) G B | F4- F z z2 | F3 G E2 B,2 | %13
w: tal, Le- van-|tai ho- je de|no- vo O~e- splen-|dor _ de _ Por- tu-|gal! _|En- tre~do bru- mas|
 A3 B G2 G B | e3 B B _d2 _c | (B2 F2) (F3 A) | _G2 B2 B2 A G | F3 F (FB,) F A | (_G2 B4) A G | %19
w: da me- mó- ria, O|Pá- tria, sen- te- se~a|voz _ Dos _|teus e- gré- gios a-|vós, Que há- * de gui-|ar- * te~a vi-|
 B4- B2- B3/2 B/ || e4 d2- d3/2 A/ | c4 B2 E F | G2 G2 B2 G2 | F6- F z/ B/ | e4 d2- d3/2 A/ | %25
w: tó- * ria! Às|ar- mas, _ às|ar- mas! So- bre~a|ter- ra, so- bre~o|mar, _ Às|ar- mas, _ às|
 c4 B2 (3(GB) e | g4 f7/2 e/ | e4- e G A B | c2 c2 B3 B | e4- e z z2 |] %30
w: ar- mas! Pe- * la|Pá- tria lu-|tar _ Con- tra os~can-|hões mar- char, mar-|char! _|
V:2
 z8 | z8 | z8 | z8 | z8 | z8 | z8 | z8 | z8 | z8 | z8 | z8 | z8 | z8 | z8 | z8 | z8 | z8 | z8 | %19
w: |||||||||||||||||||
 z4 z2 z3/2 B/ || B4 B2- B3/2 A/ | A4 G2 E F | E2 E2 G2 E2 | D6- D z/ B/ | B4 B2- B3/2 A/ | %25
w: Às|ar- mas, _ às|ar- mas! So- bre~a|ter- ra, so- bre~o|mar, _ Às|ar- mas, _ às|
 A4 G2 (3(GB) e | e4 d7/2 c/ | c4- c G A B | A2 A2 A3 A | G4- G z z2 |] %30
w: ar- mas! Pe- * la|Pá- tria lu-|tar _ Con- tra os~can-|hões mar- char, mar-|char! _|
V:3
 z8 | z8 | z8 | z8 | z8 | z8 | z8 | z8 | z8 | z8 | z8 | z8 | z8 | z8 | z8 | z8 | z8 | z8 | z8 | %19
w: |||||||||||||||||||
 z4 z2 z3/2 B/ || G4 F2- F3/2 A/ | E4 E2 E F | E2 E2 G2 E2 | B,6- B, z/ B/ | G4 F2- F3/2 A/ | %25
w: Às|ar- mas, _ às|ar- mas! So- bre~a|ter- ra, so- bre~o|mar, _ Às|ar- mas, _ às|
 E4 E2 (3(GB) e | B4 A7/2 G/ | G4- G G A B | F2 F2 F3 F | E4- E z z2 |] %30
w: ar- mas! Pe- * la|Pá- tria lu-|tar _ Con- tra os~can-|hões mar- char, mar-|char! _|
V:4
 [GBeg]4 [Bdfb]4 | [Aea]4 [Geg]2 [cec']2 | [Beb]2 e>f [Bdg]2 [ABdf]2 | [GBe]4- [GBe] z/ B/ G>E | %4
 [EAc]4 [B,DGB-]2 B>c | [CEB]2 [B,F=A]2 [G,EG]>E D>E | [B,EG]4 [CE=A]>B [FAc]>d | [B,DFB]4 z2 B>d | %8
 [FBdf]4 [DFBd]2 BA | [FA]4 [EG]2 B>G | E3 B, [G,E][B,F][EG]B | [B,DF]6 z2 | %12
 [B,DF]3 [B,DG] [B,E]2 (3B,EG | [B,FA]3 [B,B] [B,EG]2 z B | e3 B B _d2 _c | %15
 [B,DFB]2 [B,DF]>[B,DF] [B,DF]B,FA | [B,E_G]2 B>B [EGB]2 [EA]G | [DF]2 [B,DF]>[B,DF] [B,DF]B,FA | %18
 [B,E_G]2 B>B [EGB]2 [EA]G | [DFB]2 DC[K:bass] =G,B,A,F, ||[K:treble] ([EGBe]4 [DFBd]2) (3DFA | %21
 [EAc]4 [EGB]2 [G,E][B,F] | [B,EG]2 [B,EG]2 [B,EGB]2 [B,EG]2 | [B,DF]2 (3BFD B,2 (3EGB | %24
 ([EGe]4 [DFBd]2) (3DFA | [EAc]4 [EGB]2 (3GBe | [Beg]4 [ABdf]7/2 [Gce]/ | [Gce]4- [Gce]G[CA][CB] | %28
 [CFAc]2 [FAc]2 [DFAB]3 [DFAB] | [EGBe]2 [G,B,E]>[G,B,E] [G,B,E]2 z2 |] %30
V:5
 [E,,E,]2 [G,B,E]2 [D,,D,]2 [F,A,B,]2 | [C,,C,]2 [C,E,A,]2 [B,,,B,,]2 [A,,,A,,]2 | %2
 [G,,,G,,]2 [G,B,E]2 [B,,,B,,]2 [A,B,DF]2 | [E,,E,]2 [B,,,B,,]2 [E,,,E,,] z/ B,/ G,>E, | %4
 [F,,,F,,]2 [F,A,C]2 [G,,,G,,]2 [B,,D,G,]2 | [C,,C,]2 [D,,D,]2 [E,,E,]4 | %6
 [C,,C,]2 [C,E,G,]2 [F,,,F,,]2 [F,=A,CE]2 | [B,,,B,,]2 [F,,,F,,]2 [B,,,,B,,,]4 | %8
 [D,,D,]2 [D,F,A,B,]2 [B,,,B,,]2 [D,F,A,B,]2 | E,,2 [B,,D,A,]2 [E,G,]2 B,>G, | %10
 E,2 [B,,,B,,]2 [G,,,G,,]2 [E,,,E,,]2 | [B,,,B,,]2 [F,,F,]2 [D,,D,]2 [B,,,B,,]2 | %12
 [B,,A,]3 [B,,A,] [B,,G,]2 [G,,G,]2 | [F,,F,]2 [D,,D,]2 [E,,E,]4 | %14
 [_G,,,_G,,]2 [E,_G,B,]4 [E,G,B,]2 | [F,,F,]2 [D,,D,]2 [B,,,B,,]2 [B,,B,]2 | %16
 [E,,E,]2 [_G,,_G,]2 [B,,B,]2 [_C,_C]2 | [B,,B,]2 [F,,F,]2 [D,,D,]2 [B,,,B,,]2 | %18
 [E,,E,]2 [_G,,_G,]2 [B,,B,]2 [_C,_C]2 | [B,,B,]2 D,C, =G,,B,,A,,F,, || %20
 [E,,,E,,]>[D,,,D,,] [E,,,E,,]>[G,,,G,,] [B,,,B,,]4 | %21
 [A,,,A,,]>[G,,,G,,] [A,,,A,,]>[C,,C,] [E,,E,]4 | E,,2 [B,,E,G,]2 E,,2 [B,,E,G,]2 | %23
 B,,,2 (3B,F,D, B,,2 [G,,G,]2 | [E,,,E,,]>[D,,,D,,] [E,,,E,,]>[G,,,G,,] [B,,,B,,]4 | %25
 [A,,,A,,]>[G,,,G,,] [A,,,A,,]>[C,,C,] [E,,E,]4 | [B,,,B,,]2 [B,,E,G,B,]2 [B,,,B,,]2 [B,,D,A,]2 | %27
 [C,,C,]>[=B,,,=B,,] [C,,C,]>[E,,E,] [G,,G,]2 [F,,F,][G,,G,] | %28
 [F,,,F,,]2 [F,A,C]2 [B,,,B,,]2 [B,,D,A,]2 | [E,,E,]2 [B,,,B,,]2 [E,,,E,,]2 z2 |] %30
V:6
 x8 | x8 | x8 | x8 | x8 | x8 | x8 | x8 | x8 | x8 | x8 | x8 | x8 | x8 | [E_GB]4 x4 | x8 | x8 | x8 | %18
 x8 | x4[K:bass] x4 ||[K:treble] x8 | x8 | x8 | x8 | x8 | x8 | x8 | x8 | x8 | x8 |] %30

